X: 20200
T: Joe Bane's
R: polka
M: 2/4
K: Gmajor
G>A Bc|d>e dB|c>d cA|Bd G>D|
G>A Bc|d>e dB|cB Ad|1 G2 GD:|2 G2 Gd||
gd ed|gd ed|BG gd|BG ed|
gd ed|gd BG|ed fa|g2 gd:|

